X: 9
T: Mackilmoyle
R: Reel
M: 4/4
L: 1/8
K: D
"D"DFAd fdfd|"A7"cdec "D"dBAF|"D7" DFAd "G" BGBG|"D/F#"FGAF "A7"E3D|"D"DFAd fdfd|
"A7"cdec "D"dBAF|"D7"DFAd "G"BGBd|"A7"cdec "D" d4:||:"A7"cdef gfg2|Ace^g "D/A"aga2|"A7"Acef gfge|
"Em/A"dfed cB"A7"A^G|"A7"Acef gfg2|Ace^g "D/A"aga2|"A7"Acef gfge|cABc"D" d4:|]

